; generated by PrusaSlicer 2.7.4+win64 on 2024-05-05 at 15:23:08 UTC


;
;
; 

; external perimeters extrusion width = 0.45mm
; perimeters extrusion width = 0.45mm
; infill extrusion width = 0.45mm
; solid infill extrusion width = 0.45mm
; top infill extrusion width = 0.40mm
; first layer extrusion width = 0.42mm

; external perimeters extrusion width = 0.45mm
; perimeters extrusion width = 0.45mm
; infill extrusion width = 0.45mm
; solid infill extrusion width = 0.45mm
; top infill extrusion width = 0.40mm
; first layer extrusion width = 0.42mm

; external perimeters extrusion width = 0.45mm
; perimeters extrusion width = 0.45mm
; infill extrusion width = 0.45mm
; solid infill extrusion width = 0.45mm
; top infill extrusion width = 0.40mm
; first layer extrusion width = 0.42mm

M73 P0 R5
M73 Q0 S5
M201 X1000 Y1000 Z200 E8000 ; sets maximum accelerations, mm/sec^2
M203 X200 Y200 Z12 E120 ; sets maximum feedrates, mm / sec
M204 S1250 T1250 ; sets acceleration (S) and retract acceleration (R), mm/sec^2
M205 X8.00 Y8.00 Z0.40 E4.50 ; sets the jerk limits, mm/sec
M205 S0 T0 ; sets the minimum extruding and travel feed rate, mm/sec

; printing object Shape-Box id:0 copy 0
; stop printing object Shape-Box id:0 copy 0
; printing object Shape-Box id:2 copy 0
; stop printing object Shape-Box id:2 copy 0
; printing object Shape-Box id:1 copy 0
; stop printing object Shape-Box id:1 copy 0

;TYPE:Custom
M862.3 P "MK3SMMU2S" ; printer model check
M862.1 P0.4 ; nozzle diameter check
M115 U3.13.3 ; tell printer latest fw version
G90 ; use absolute coordinates
M83 ; extruder relative mode
M104 S215 ; set extruder temp
M140 S60 ; set bed temp
M190 S60 ; wait for bed temp
M109 S215 ; wait for extruder temp
G28 W ; home all without mesh bed level
G80 X92.3914 Y54.0177 W68.7879 H57.8886 ; mesh bed levelling

; Send the filament type to the MMU unit.
; E stands for extruder number, F stands for filament type (0: default; 1:flex; 2: PVA)
M403 E0 F0
M403 E1 F0
M403 E2 F0
M403 E3 F0
M403 E4 F0


;go outside print area
G1 Y-3 F1000
G1 Z0.4 F1000
M73 P4 R5
M73 Q4 S5
; select extruder
T0
; initial load
G1 X55 E29 F1073
G1 X5 E29 F1800
M73 P5 R5
M73 Q5 S5
G1 X55 E8 F2000
G1 Z0.3 F1000
M73 P6 R5
M73 Q6 S5
G92 E0
G1 X240 E25 F2200
G1 Y-2 F1000
M73 P7 R5
M73 Q7 S5
G1 X55 E25 F1400
G1 Z0.2 F1000
M73 P9 R5
M73 Q9 S5
G1 X5 E4 F1000
G92 E0


M221 S95
G92 E0

; Don't change E values below. Excessive value can damage the printer.

M907 E538 ; set extruder motor current
G21 ; set units to millimeters
G90 ; use absolute coordinates
M83 ; use relative distances for extrusion
T0

M900 K0.05 ; Filament gcode LA 1.5
M900 K30 ; Filament gcode LA 1.0




M107
;LAYER_CHANGE
;Z:0.2
;HEIGHT:0.2
; printing object Shape-Box id:2 copy 0
G1 E-.8 F2100
M73 P10 R5
M73 Q10 S5
; stop printing object Shape-Box id:2 copy 0
G1 Z.6 F720
G1 X101.542 Y68.564 F10800
G1 Z.2 F720
G1 E.8 F2100
M204 S800
;TYPE:Skirt/Brim
;WIDTH:0.42
;HEIGHT:0.2
G1 F1200
G1 X110.53 Y55.253 E.50359
G1 X111.586 Y54.389 E.04278
M73 P11 R5
M73 Q11 S5
G1 X112.5 Y54.206 E.02923
G1 X137.5 Y54.206 E.78386
G1 X138.807 Y54.598 E.04278
G1 X139.345 Y55.084 E.02273
G1 X160.458 Y81.065 E1.04968
G1 X160.991 Y82.564 E.04988
G1 X160.991 Y109.341 E.83957
M73 Q12 S5
G1 X160.599 Y110.648 E.04278
M73 P12 R5
G1 X159.553 Y111.524 E.04278
G1 X158.614 Y111.718 E.03006
G1 X94.957 Y111.718 E1.99592
G1 X93.65 Y111.326 E.04278
M73 P13 R5
M73 Q13 S5
G1 X92.774 Y110.28 E.04278
G1 X92.58 Y109.341 E.03006
G1 X92.58 Y82.564 E.83957
G1 X92.987 Y81.234 E.04361
G1 X101.508 Y68.614 E.47744
M204 S1000
;WIPE_START
G1 F8640
G1 X101.542 Y68.564 E-.01396
G1 X103.447 Y65.743 E-.78604
;WIPE_END
G1 Z.6 F720
M73 Q14 S5
G1 X112.7 Y63.183 F10800
G1 Z.2 F720
M73 P14 R5
G1 E.8 F2100
; printing object Shape-Box id:0 copy 0
M204 S800
;TYPE:External perimeter
;WIDTH:0.4
G1 F1200
G1 X137.3 Y63.183 E.73041
M204 S1000
; stop printing object Shape-Box id:0 copy 0
;WIPE_START
G1 F8640
G1 X133.835 Y63.183 E-.8
;WIPE_END
G1 Z.6 F720
G1 X156.535 Y107.262 F10800
G1 Z.2 F720
G1 E.8 F2100
;HEIGHT:0.2
;TYPE:Wipe tower
;WIDTH:0.5
;--------------------
; CP TOOLCHANGE START
; toolchange #1
; material : PLA -> PLA
;--------------------
M220 B
M220 S100
; CP TOOLCHANGE UNLOAD
;WIDTH:0.65
G1 X156.035 Y106.872
M900 K0
G1 F1339
G1 X150.456 E0.2816
G1 F1451
G1 X144.411 E0.3051
G1 F1642
G1 X137.570 E0.3453
G1 F1897
G1 X129.666 E0.3990
G1 F2264
G1 X120.234 E0.4761
G1 F2742
M73 Q15 S5
G1 X108.810 E0.5767
G1 F3220
M73 P15 R5
G1 X97.535 E0.5691
G1 Y106.092 F7200
G1 F3220
G1 X99.677 E0.1081
G1 F3635
G1 X114.821 E0.7644
G1 F3921
G1 X131.160 E0.8248
G1 F4033
G1 X147.965 E0.8483
;WIDTH:0.5
G1 E-15.0000 F6000
G1 E-24.5000 F1200
G1 E-7.0000 F600
G1 E-3.5000 F360
M73 Q16 S5
G4 S0
M104 S215
G1 Y105.312
M73 P16 R5
G1 X97.535 E20.0000 F454
G1 X147.965 E-20.0000 F303
M73 P18 R4
M73 Q18 S4
G1 E-35.0000 F2000
M73 P20 R4
M73 Q20 S4
G1 Y105.452 F2400
M73 P21 R4
M73 Q21 S4
G4 S0
; Filament-specific end gcode
T1

M900 K0.05 ; Filament gcode LA 1.5
M900 K30 ; Filament gcode LA 1.0





G1 F10800
G1 X147.965 Y105.452
G1 Z.2 F720
G4 S0
; CP TOOLCHANGE LOAD
G1 E12.0000 F1140
G1 X97.410 E42.0000 F1011
M73 P28 R4
M73 Q28 S4
G1 X147.965 E6.0000 F708
M73 P29 R4
M73 Q29 S4
G1 Y105.952
M73 P30 R4
M73 Q30 S4
; CP TOOLCHANGE WIPE
;WIDTH:0.5
G1 X155.785 E0.2972 F396
G1 X156.535 Y105.452 E0.0343
M73 P31 R4
M73 Q31 S4
G1 X97.785 E2.2329 F450
G1 X97.035 Y104.952 E0.0343
M73 P33 R3
M73 Q33 S3
G1 X155.785 E2.2329 F550
G1 Y104.452 E0.0190
M73 P35 R3
M73 Q35 S3
G1 X97.785 E2.2044 F1050
G1 Y103.952 E0.0190
M73 P36 R3
M73 Q36 S3
G1 X155.785 E2.2044 F1100
G1 X156.535 Y103.452 E0.0343
M73 P37 R3
M73 Q37 S3
G1 X97.785 E2.2329 F1150
G1 X97.035 Y102.952 E0.0343
G1 X155.785 E2.2329 F1200
G1 Y102.452 E0.0190
M73 P38 R3
M73 Q38 S3
G1 X97.785 E2.2044
G1 Y101.952 E0.0190
M73 P39 R3
M73 Q39 S3
G1 X155.785 E2.2044
G1 X156.535 Y101.452 E0.0343
M73 P40 R3
M73 Q40 S3
G1 X97.785 E2.2329
G1 X97.035 Y100.952 E0.0343
M73 P41 R3
M73 Q41 S3
G1 X155.785 E2.2329
G1 Y100.452 E0.0190
M73 P42 R3
M73 Q42 S3
G1 X97.785 E2.2044
G1 Y99.952 E0.0190
G1 X155.785 E2.2044
;WIDTH:0.5
M220 R
G1 F10800
M73 P43 R3
M73 Q43 S3
G4 S0
G92 E0
; CP TOOLCHANGE END
;------------------


G1 X97.285 Y84.892 F7200
;HEIGHT:0.2
;TYPE:Wipe tower
;WIDTH:0.5
G1 X156.285
G1 X156.785 Y84.392
M73 P44 R3
M73 Q44 S3
G1 Y107.512 E0.8787 F1200
G1 X96.785 E2.2804
G1 Y84.392 E0.8787
M73 P45 R3
M73 Q45 S3
G1 X156.785 E2.2804
G1 X157.242 Y83.935
M73 P46 R3
M73 Q46 S3
G1 Y107.969 E0.9135
G1 X96.328 E2.3151
G1 Y83.935 E0.9135
M73 P47 R3
M73 Q47 S3
G1 X157.242 E2.3151
M73 Q48 S3
G1 X157.699 Y83.478
M73 P48 R3
G1 Y108.426 E0.9482
G1 X95.871 E2.3499
M73 P49 R3
M73 Q49 S3
G1 Y83.478 E0.9482
M73 P50 R2
M73 Q50 S2
G1 X157.699 E2.3499
G1 X158.156 Y83.021
M73 P51 R2
M73 Q51 S2
G1 Y108.883 E0.9829
G1 X95.414 E2.3846
G1 Y83.021 E0.9829
M73 P52 R2
M73 Q52 S2
G1 X158.156 E2.3846
G1 X158.613 Y82.564
M73 P53 R2
M73 Q53 S2
G1 Y109.340 E1.0177
G1 X94.957 E2.4194
M73 P54 R2
M73 Q54 S2
G1 Y82.564 E1.0177
M73 P55 R2
M73 Q55 S2
G1 X158.613 E2.4194

;WIPE_START
G1 F8640
M73 P56 R2
M73 Q56 S2
G1 X155.149 Y82.564 E-.8
;WIPE_END
G1 Z.6 F720
G1 X112.7 Y56.783 F10800
G1 Z.2 F720
G1 E.8 F2100
; printing object Shape-Box id:1 copy 0
M204 S800
;TYPE:External perimeter
;WIDTH:0.4
;HEIGHT:0.2
G1 F1200
G1 X137.3 Y56.783 E.73041
M204 S1000
; stop printing object Shape-Box id:1 copy 0
;WIPE_START
G1 F8640
G1 X133.835 Y56.783 E-.8
;WIPE_END
G1 Z.6 F720
G1 X156.535 Y99.702 F10800
G1 Z.2 F720
M73 P57 R2
M73 Q57 S2
G1 E.8 F2100
;HEIGHT:0.2
;TYPE:Wipe tower
;WIDTH:0.5
;--------------------
; CP TOOLCHANGE START
; toolchange #2
; material : PLA -> PLA
;--------------------
M220 B
M220 S100
; CP TOOLCHANGE UNLOAD
;WIDTH:0.65
G1 X156.035 Y99.312
M900 K0
G1 F1339
G1 X150.456 E0.2816
G1 F1451
G1 X144.411 E0.3051
G1 F1642
G1 X137.570 E0.3453
G1 F1897
G1 X129.666 E0.3990
G1 F2264
G1 X120.234 E0.4761
G1 F2742
G1 X108.810 E0.5767
G1 F3220
G1 X97.535 E0.5691
G1 Y98.532 F7200
G1 F3220
G1 X99.677 E0.1081
G1 F3635
G1 X114.821 E0.7644
G1 F3921
G1 X131.160 E0.8248
G1 F4033
G1 X147.965 E0.8483
;WIDTH:0.5
G1 E-15.0000 F6000
G1 E-24.5000 F1200
G1 E-7.0000 F600
M73 P58 R2
M73 Q58 S2
G1 E-3.5000 F360
G4 S0
M104 S215
G1 Y97.752
G1 X97.535 E20.0000 F454
G1 X147.965 E-20.0000 F303
M73 P60 R2
M73 Q60 S2
G1 E-35.0000 F2000
M73 P63 R2
M73 Q63 S2
G1 Y97.892 F2400
G4 S0
; Filament-specific end gcode
T2

M900 K0.05 ; Filament gcode LA 1.5
M900 K30 ; Filament gcode LA 1.0





G1 F10800
G1 X147.965 Y97.892
G1 Z.2 F720
G4 S0
; CP TOOLCHANGE LOAD
G1 E12.0000 F1140
G1 X97.410 E42.0000 F1011
G1 X147.965 E6.0000 F708
M73 P64 R2
M73 Q64 S2
G1 Y98.392
M73 P65 R2
M73 Q65 S2
; CP TOOLCHANGE WIPE
;WIDTH:0.5
G1 X155.785 E0.2972 F396
G1 X156.535 Y97.892 E0.0343
M73 P66 R2
M73 Q66 S2
G1 X97.785 E2.2329 F450
G1 X97.035 Y97.392 E0.0343
M73 P68 R1
M73 Q68 S1
G1 X155.785 E2.2329 F550
G1 Y96.892 E0.0190
M73 P70 R1
M73 Q70 S1
G1 X97.785 E2.2044 F1050
G1 Y96.392 E0.0190
M73 P71 R1
M73 Q71 S1
G1 X155.785 E2.2044 F1100
G1 X156.535 Y95.892 E0.0343
M73 Q72 S1
G1 X97.785 E2.2329 F1150
M73 P72 R1
G1 X97.035 Y95.392 E0.0343
G1 X155.785 E2.2329 F1200
G1 Y94.892 E0.0190
M73 P73 R1
M73 Q73 S1
G1 X97.785 E2.2044
G1 Y94.392 E0.0190
M73 P74 R1
M73 Q74 S1
G1 X155.785 E2.2044
G1 X156.535 Y93.892 E0.0343
M73 P75 R1
M73 Q75 S1
G1 X97.785 E2.2329
G1 X97.035 Y93.392 E0.0343
M73 P76 R1
M73 Q76 S1
G1 X155.785 E2.2329
G1 Y92.892 E0.0190
M73 P77 R1
M73 Q77 S1
G1 X97.785 E2.2044
G1 Y92.392 E0.0190
G1 X155.785 E2.2044
G1 X156.535 Y91.892 E0.0343
M73 P78 R1
M73 Q78 S1
G1 X97.785 E2.2329
G1 X97.035 Y91.392 E0.0343
M73 P79 R1
M73 Q79 S1
G1 X155.785 E2.2329
G1 Y90.892 E0.0190
M73 P80 R1
M73 Q80 S1
G1 X97.785 E2.2044
G1 Y90.392 E0.0190
M73 P81 R1
M73 Q81 S1
G1 X155.785 E2.2044
G1 X156.535 Y89.892 E0.0343
G1 X97.785 E2.2329
G1 X97.035 Y89.392 E0.0343
M73 P82 R1
M73 Q82 S1
G1 X155.785 E2.2329
G1 Y88.892 E0.0190
M73 P83 R0
M73 Q83 S0
G1 X97.785 E2.2044
G1 Y88.392 E0.0190
M73 P84 R0
M73 Q84 S0
G1 X155.785 E2.2044
G1 X156.535 Y87.892 E0.0343
M73 P85 R0
M73 Q85 S0
G1 X97.785 E2.2329
G1 X97.035 Y87.392 E0.0343
M73 P86 R0
M73 Q86 S0
G1 X155.785 E2.2329
G1 Y86.892 E0.0190
G1 X97.785 E2.2044
G1 Y86.392 E0.0190
M73 P87 R0
M73 Q87 S0
G1 X155.785 E2.2044
G1 X156.535 Y85.892 E0.0343
M73 P88 R0
M73 Q88 S0
G1 X97.785 E2.2329
G1 X97.035 Y85.392 E0.0343
M73 P89 R0
M73 Q89 S0
G1 X155.785 E2.2329
G1 Y84.892 E0.0190
M73 P90 R0
M73 Q90 S0
G1 X97.785 E2.2044
;WIDTH:0.5
M220 R
G1 F10800
M73 P91 R0
M73 Q91 S0
G4 S0
G92 E0
; CP TOOLCHANGE END
;------------------



;WIPE_START
G1 F8640
G1 X97.785 Y85.392 E-.11545
G1 X100.75 Y85.392 E-.68455
;WIPE_END
G1 Z.6 F720
G1 X112.951 Y70.599 F10800
G1 Z.2 F720
G1 E.8 F2100
; printing object Shape-Box id:2 copy 0
M204 S800
;TYPE:External perimeter
;WIDTH:0.4
;HEIGHT:0.2
G1 F1200
G1 X137.551 Y70.599 E.73041
M204 S1000
; stop printing object Shape-Box id:2 copy 0
G1 X137.551 Y70.599 Z.4 F10800
;WIPE_START
G1 F8640;_WIPE
G1 X134.086 Y70.599 E-.8
;WIPE_END
G1 Z.6 F720
G1 X156.535 Y107.262 F10800
G1 Z.2 F720
G1 E.8 F2100
;HEIGHT:0.2
;TYPE:Wipe tower
;WIDTH:0.5
;--------------------
; CP TOOLCHANGE START
M220 B
M220 S100
; CP TOOLCHANGE UNLOAD
;WIDTH:0.65
G1 X156.035 Y106.872
M900 K0
G1 F1339
G1 X150.456 E0.2816
G1 F1451
G1 X144.411 E0.3051
G1 F1642
G1 X137.570 E0.3453
G1 F1897
M73 P92 R0
M73 Q92 S0
G1 X129.666 E0.3990
G1 F2264
G1 X120.234 E0.4761
G1 F2742
G1 X108.810 E0.5767
G1 F3220
G1 X97.535 E0.5691
G1 Y106.092 F7200
G1 F3220
G1 X99.677 E0.1081
G1 F3635
G1 X114.821 E0.7644
G1 F3921
G1 X131.160 E0.8248
G1 F4033
G1 X147.965 E0.8483
;WIDTH:0.5
G1 E-15.0000 F6000
G1 E-24.5000 F1200
G1 E-7.0000 F600
G1 E-3.5000 F360
M73 P93 R0
M73 Q93 S0
G4 S0
M104 S205
G1 Y105.312
G1 X97.535 E20.0000 F454
G1 X147.965 E-20.0000 F303
M73 P95 R0
M73 Q95 S0
G1 E-35.0000 F2000
M73 P97 R0
M73 Q97 S0
G1 Y105.452 F2400
M73 P98 R0
M73 Q98 S0
G4 S0
M220 R
G1 F10800
G4 S0
G92 E0
; CP TOOLCHANGE END
;------------------



G1 E-.8 F2100
M107
;TYPE:Custom
; Filament-specific end gcode
G1 Z1.2 F720 ; Move print head up
G1 X0 Y210 F7200 ; park
G1 Z49.2 F720 ; Move print head further up

G1 E-15 F3000
M73 P99 R0
M73 Q99 S0


M140 S0 ; turn off heatbed
M107 ; turn off fan

; Unload filament
M702 C

G4 ; wait
M221 S100 ; reset flow
M900 K0 ; reset LA

M104 S0 ; turn off temperature
M84 ; disable motors
; max_layer_z = 0.2
M73 P100 R0
M73 Q100 S0
; objects_info = {"objects":[{"name":"Shape-Box id:0 copy 0","polygon":[[137.500,63.383],[112.500,63.383],[112.500,62.983],[137.500,62.983]]},{"name":"Shape-Box id:2 copy 0","polygon":[[137.751,70.799],[112.751,70.799],[112.751,70.399],[137.751,70.399]]},{"name":"Shape-Box id:1 copy 0","polygon":[[137.500,56.983],[112.500,56.983],[112.500,56.583],[137.500,56.583]]}]}
; filament used [mm] = 48.18, 66.45, 67.17, 0.00, 0.00
; filament used [cm3] = 0.12, 0.16, 0.16, 0.00, 0.00
; filament used [g] = 0.14, 0.20, 0.20, 0.00, 0.00
; filament cost = 0.00, 0.01, 0.01, 0.00, 0.00
; total filament used [g] = 0.54
; total filament cost = 0.02
; total filament used for wipe tower [g] = 0.39
; total toolchanges = 2
; estimated printing time (normal mode) = 5m 58s
; estimated printing time (silent mode) = 5m 58s
; estimated first layer printing time (normal mode) = 5m 58s
; estimated first layer printing time (silent mode) = 5m 58s

; prusaslicer_config = begin
; arc_fitting = disabled
; autoemit_temperature_commands = 1
; avoid_crossing_curled_overhangs = 0
; avoid_crossing_perimeters = 0
; avoid_crossing_perimeters_max_detour = 0
; bed_custom_model = 
; bed_custom_texture = 
; bed_shape = 0x0,250x0,250x210,0x210
; bed_temperature = 60,60,60,60,60
; before_layer_gcode = ;BEFORE_LAYER_CHANGE\nG92 E0.0\n;[layer_z]\n\n
; between_objects_gcode = 
; binary_gcode = 0
; bottom_fill_pattern = monotonic
; bottom_solid_layers = 4
; bottom_solid_min_thickness = 0.5
; bridge_acceleration = 1000
; bridge_angle = 0
; bridge_fan_speed = 100,100,100,100,100
; bridge_flow_ratio = 0.95
; bridge_speed = 25
; brim_separation = 0.1
; brim_type = outer_only
; brim_width = 0
; color_change_gcode = M600\nG1 E0.3 F1500 ; prime after color change
; compatible_printers_condition_cummulative = "printer_notes=~/.*PRINTER_VENDOR_PRUSA3D.*/ and printer_notes=~/.*PRINTER_MODEL_MK3.*/ and nozzle_diameter[0]==0.4 and printer_model!=\"MK3.5MMU3\"";"nozzle_diameter[0]!=0.8 and nozzle_diameter[0]!=0.25 and printer_notes=~/.*PRINTER_VENDOR_PRUSA3D.*/ and printer_notes=~/.*PRINTER_MODEL_MK(2.5|3).*/ and single_extruder_multi_material";"nozzle_diameter[0]!=0.8 and nozzle_diameter[0]!=0.25 and printer_notes=~/.*PRINTER_VENDOR_PRUSA3D.*/ and printer_notes=~/.*PRINTER_MODEL_MK(2.5|3).*/ and single_extruder_multi_material";"nozzle_diameter[0]!=0.8 and nozzle_diameter[0]!=0.25 and printer_notes=~/.*PRINTER_VENDOR_PRUSA3D.*/ and printer_notes=~/.*PRINTER_MODEL_MK(2.5|3).*/ and single_extruder_multi_material";"nozzle_diameter[0]!=0.8 and nozzle_diameter[0]!=0.25 and printer_notes=~/.*PRINTER_VENDOR_PRUSA3D.*/ and printer_notes=~/.*PRINTER_MODEL_MK(2.5|3).*/ and single_extruder_multi_material";"nozzle_diameter[0]!=0.8 and nozzle_diameter[0]!=0.25 and printer_notes=~/.*PRINTER_VENDOR_PRUSA3D.*/ and printer_notes=~/.*PRINTER_MODEL_MK(2.5|3).*/ and single_extruder_multi_material"
; complete_objects = 0
; cooling = 1,1,1,1,1
; cooling_tube_length = 20
; cooling_tube_retraction = 40
; default_acceleration = 1000
; default_filament_profile = "Prusament PLA @MMU"
; default_print_profile = 0.15mm QUALITY @MK3
; deretract_speed = 0,0,0,0,0
; disable_fan_first_layers = 1,1,1,1,1
; dont_support_bridges = 0
; draft_shield = disabled
; duplicate_distance = 6
; elefant_foot_compensation = 0.2
; enable_dynamic_fan_speeds = 0,0,0,0,0
; enable_dynamic_overhang_speeds = 1
; end_filament_gcode = "; Filament-specific end gcode";"; Filament-specific end gcode";"; Filament-specific end gcode";"; Filament-specific end gcode";"; Filament-specific end gcode"
