; generated by PrusaSlicer 2.6.1+win64 on 2023-10-06 at 18:12:38 UTC


;
;
; 

; external perimeters extrusion width = 0.45mm
; perimeters extrusion width = 0.45mm
; infill extrusion width = 0.45mm
; solid infill extrusion width = 0.45mm
; top infill extrusion width = 0.40mm
; first layer extrusion width = 0.42mm

; external perimeters extrusion width = 0.45mm
; perimeters extrusion width = 0.45mm
; infill extrusion width = 0.45mm
; solid infill extrusion width = 0.45mm
; top infill extrusion width = 0.40mm
; first layer extrusion width = 0.42mm

; external perimeters extrusion width = 0.45mm
; perimeters extrusion width = 0.45mm
; infill extrusion width = 0.45mm
; solid infill extrusion width = 0.45mm
; top infill extrusion width = 0.40mm
; first layer extrusion width = 0.42mm

M73 P0 R6
M73 Q0 S6
M201 X1000 Y1000 Z200 E8000 ; sets maximum accelerations, mm/sec^2
M203 X200 Y200 Z12 E120 ; sets maximum feedrates, mm / sec
M204 S1250 T1250 ; sets acceleration (S) and retract acceleration (R), mm/sec^2
M205 X8.00 Y8.00 Z0.40 E4.50 ; sets the jerk limits, mm/sec
M205 S0 T0 ; sets the minimum extruding and travel feed rate, mm/sec
;TYPE:Custom
M862.3 P "MK3SMMU2S" ; printer model check
M862.1 P0.4 ; nozzle diameter check
M115 U3.13.1 ; tell printer latest fw version
G90 ; use absolute coordinates
M83 ; extruder relative mode
M104 S215 ; set extruder temp
M140 S60 ; set bed temp
M190 S60 ; wait for bed temp
M109 S215 ; wait for extruder temp
G28 W ; home all without mesh bed level
G80 ; mesh bed leveling

; Send the filament type to the MMU unit.
; E stands for extruder number, F stands for filament type (0: default; 1:flex; 2: PVA)
M403 E0 F0
M403 E1 F0
M403 E2 F0
M403 E3 F0
M403 E4 F0


;go outside print area
G1 Y-3 F1000
G1 Z0.4 F1000
; select extruder
T0
; initial load
M73 P4 R5
M73 Q4 S5
G1 X55 E29 F1073
G1 X5 E29 F1800
G1 X55 E8 F2000
M73 P5 R5
M73 Q5 S5
G1 Z0.3 F1000
G92 E0
G1 X240 E25 F2200
G1 Y-2 F1000
M73 P7 R5
M73 Q7 S5
G1 X55 E25 F1400
G1 Z0.2 F1000
M73 P9 R5
M73 Q9 S5
G1 X5 E4 F1000
G92 E0


M221 S95
G92 E0

; Don't change E values below. Excessive value can damage the printer.
M907 E430 ; set extruder motor current
G21 ; set units to millimeters
G90 ; use absolute coordinates
M83 ; use relative distances for extrusion
T0
M900 K0.05 ; Filament gcode LA 1.5
M900 K30 ; Filament gcode LA 1.0

G1 Z.2 F720
M107
;LAYER_CHANGE
;Z:0.2
;HEIGHT:0.2
;BEFORE_LAYER_CHANGE
G92 E0.0
;0.2


M73 P10 R5
M73 Q10 S5
G1 E-.8 F2100
G1 Z.6 F720
G1 Z.2
;AFTER_LAYER_CHANGE
;0.2
G1 Z.6
G1 X116.312 Y86.376 F10800
G1 Z.2 F720
G1 E.8 F2100
M204 S800
;TYPE:Skirt/Brim
;WIDTH:0.42
;HEIGHT:0.2
G1 F1200
G1 X117.358 Y85.5 E.04278
G1 X118.298 Y85.306 E.03009
G1 X131.31 Y85.382 E.40799
G1 X132.085 Y85.517 E.02467
G1 X232.618 Y120.93 E3.34199
G1 X233.721 Y121.733 E.04278
M73 P12 R5
M73 Q12 S5
G1 X234.205 Y123.172 E.0476
G1 X234.205 Y149.948 E.83954
G1 X233.814 Y151.255 E.04277
G1 X232.768 Y152.132 E.0428
G1 X231.828 Y152.325 E.03009
G1 X168.172 Y152.325 E1.99589
G1 X167.195 Y152.116 E.03133
M73 P13 R5
M73 Q13 S5
G1 X117.321 Y129.65 E1.71509
G1 X116.291 Y128.757 E.04274
M73 P14 R5
M73 Q14 S5
G1 X115.921 Y127.483 E.0416
G1 X115.921 Y87.683 E1.2479
G1 X116.295 Y86.434 E.04088
M204 S1000
; printing object zzz.obj_10 id:0 copy 0
;WIPE_START
G1 F8640
G1 X117.358 Y85.5 E-.32674
G1 X118.298 Y85.306 E-.22162
G1 X119.388 Y85.312 E-.25164
;WIPE_END
G1 Z.6 F720
G1 X118.488 Y127.293 F10800
G1 Z.2 F720
M73 P15 R5
M73 Q15 S5
G1 E.8 F2100
M204 S800
;TYPE:External perimeter
;WIDTH:0.38292
G1 F1200
G1 X118.488 Y87.873 E1.11445
M204 S1000
; stop printing object zzz.obj_10 id:0 copy 0
;WIPE_START
G1 F8640
G1 X118.488 Y91.338 E-.8
;WIPE_END
G1 Z.6 F720
G1 X229.75 Y147.87 F10800
G1 Z.2 F720
M73 Q16 S5
G1 E.8 F2100
;HEIGHT:0.2
;TYPE:Wipe tower
;WIDTH:0.5
;--------------------
; CP TOOLCHANGE START
; toolchange #1
; material : PLA -> PLA
;--------------------
M220 B
M220 S100
; CP TOOLCHANGE UNLOAD
;WIDTH:0.65
G1 X229.250 Y147.480
M900 K0
G1 F1339
G1 X223.671 E0.2816
G1 F1451
M73 P16 R5
G1 X217.626 E0.3051
G1 F1642
G1 X210.785 E0.3453
G1 F1897
G1 X202.881 E0.3990
G1 F2264
G1 X193.449 E0.4761
G1 F2742
G1 X182.025 E0.5767
G1 F3220
G1 X170.750 E0.5691
G1 Y146.700 F7200
G1 F3220
G1 X172.892 E0.1081
G1 F3635
G1 X188.036 E0.7644
G1 F3921
G1 X204.375 E0.8248
G1 F4033
G1 X221.180 E0.8483
;WIDTH:0.5
G1 E-15.0000 F6000
G1 E-24.5000 F1200
G1 E-7.0000 F600
M73 P17 R5
M73 Q17 S5
G1 E-3.5000 F360
M104 S215
G1 Y145.920
G1 X170.750 E20.0000 F454
G1 X221.180 E-20.0000 F303
M73 P19 R4
M73 Q19 S4
G1 E-35.0000 F2000
M73 P22 R4
M73 Q22 S4
G1 Y146.060 F2400
G4 S0
G1 Z.6 F720
; Filament-specific end gcode
T3
M900 K0.05 ; Filament gcode LA 1.5
M900 K30 ; Filament gcode LA 1.0


G1 F10800
G1 X221.180 Y146.060
G1 Z.2 F720
G4 S0
; CP TOOLCHANGE LOAD
G1 E12.0000 F1140
M73 P29 R4
M73 Q29 S4
G1 X170.625 E42.0000 F1011
G1 X221.180 E6.0000 F708
M73 P30 R4
M73 Q30 S4
G1 Y146.560
; CP TOOLCHANGE WIPE
M73 P31 R4
M73 Q31 S4
G1 X229.000 E0.3507 F396
G1 X229.750 Y146.060 E0.0404
M73 P32 R4
M73 Q32 S4
G1 X171.000 E2.6348 F450
G1 X170.250 Y145.560 E0.0404
M73 P34 R4
M73 Q34 S4
G1 X229.000 E2.6348 F550
G1 Y145.060 E0.0224
M73 P36 R3
M73 Q36 S3
G1 X171.000 E2.6012 F1050
G1 Y144.560 E0.0224
M73 P37 R3
G1 X229.000 E2.6012 F1100
M73 Q37 S3
G1 X229.750 Y144.060 E0.0404
G1 X171.000 E2.6348 F1150
G1 X170.250 Y143.560 E0.0404
M73 P38 R3
M73 Q38 S3
G1 X229.000 E2.6348 F1200
G1 Y143.060 E0.0224
M73 P39 R3
M73 Q39 S3
G1 X171.000 E2.6012
G1 Y142.560 E0.0224
M73 P40 R3
M73 Q40 S3
G1 X229.000 E2.6012
G1 X229.750 Y142.060 E0.0404
M73 P41 R3
M73 Q41 S3
G1 X171.000 E2.6348
G1 X170.250 Y141.560 E0.0404
G1 X229.000 E2.6348
G1 Y141.060 E0.0224
M73 P42 R3
M73 Q42 S3
G1 X171.000 E2.6012
G1 Y140.560 E0.0224
M73 P43 R3
M73 Q43 S3
G1 X229.000 E2.6012
M220 R
G1 F10800
G4 S0
G92 E0
; CP TOOLCHANGE END
;------------------


M73 P44 R3
M73 Q44 S3
G1 X170.500 Y125.500 F7200
;HEIGHT:0.2
;TYPE:Wipe tower
;WIDTH:0.5
G1 X229.500
G1 X230.000 Y125.000
G1 Y148.120 E0.8787 F1200
G1 X170.000 E2.2804
M73 P45 R3
G1 Y125.000 E0.8787
M73 Q45 S3
G1 X230.000 E2.2804
M73 P46 R3
M73 Q46 S3
G1 X230.457 Y124.543
G1 Y148.577 E0.9135
G1 X169.543 E2.3151
M73 P47 R3
M73 Q47 S3
G1 Y124.543 E0.9135
M73 P48 R3
M73 Q48 S3
G1 X230.457 E2.3151
G1 X230.914 Y124.086
M73 P49 R3
M73 Q49 S3
G1 Y149.034 E0.9482
G1 X169.086 E2.3499
G1 Y124.086 E0.9482
M73 P50 R3
M73 Q50 S3
G1 X230.914 E2.3499
G1 X231.371 Y123.629
M73 P51 R2
M73 Q51 S2
G1 Y149.491 E0.9829
G1 X168.629 E2.3846
M73 P52 R2
G1 Y123.629 E0.9829
M73 Q52 S2
G1 X231.371 E2.3846
M73 P53 R2
M73 Q53 S2
G1 X231.828 Y123.172
M73 P54 R2
M73 Q54 S2
G1 Y149.948 E1.0177
G1 X168.172 E2.4194
G1 Y123.172 E1.0177
M73 P55 R2
M73 Q55 S2
G1 X231.828 E2.4194

; printing object zzz.obj_11 id:1 copy 0
;WIPE_START
G1 F8640
M73 P56 R2
M73 Q56 S2
G1 X228.363 Y123.172 E-.8
;WIPE_END
G1 Z.6 F720
G1 X124.906 Y127.369 F10800
G1 Z.2 F720
G1 E.8 F2100
M204 S800
;TYPE:External perimeter
;WIDTH:0.38292
;HEIGHT:0.2
G1 F1200
G1 X124.906 Y87.949 E1.11445
M204 S1000
; stop printing object zzz.obj_11 id:1 copy 0
;WIPE_START
G1 F8640
M73 P57 R2
M73 Q57 S2
G1 X124.906 Y91.414 E-.8
;WIPE_END
G1 Z.6 F720
G1 X229.75 Y140.31 F10800
G1 Z.2 F720
G1 E.8 F2100
;HEIGHT:0.2
;TYPE:Wipe tower
;WIDTH:0.5
;--------------------
; CP TOOLCHANGE START
; toolchange #2
; material : PLA -> PLA
;--------------------
M220 B
M220 S100
; CP TOOLCHANGE UNLOAD
;WIDTH:0.65
G1 X229.250 Y139.920
M900 K0
G1 F1339
G1 X223.671 E0.2816
G1 F1451
G1 X217.626 E0.3051
G1 F1642
G1 X210.785 E0.3453
G1 F1897
G1 X202.881 E0.3990
G1 F2264
M73 Q58 S2
G1 X193.449 E0.4761
G1 F2742
M73 P58 R2
G1 X182.025 E0.5767
G1 F3220
G1 X170.750 E0.5691
G1 Y139.140 F7200
G1 F3220
G1 X172.892 E0.1081
G1 F3635
G1 X188.036 E0.7644
G1 F3921
G1 X204.375 E0.8248
G1 F4033
G1 X221.180 E0.8483
;WIDTH:0.5
G1 E-15.0000 F6000
G1 E-24.5000 F1200
G1 E-7.0000 F600
G1 E-3.5000 F360
M104 S215
M73 Q59 S2
G1 Y138.360
M73 P59 R2
G1 X170.750 E20.0000 F454
G1 X221.180 E-20.0000 F303
M73 P61 R2
M73 Q61 S2
G1 E-35.0000 F2000
M73 P63 R2
M73 Q63 S2
G1 Y138.500 F2400
G4 S0
M73 P64 R2
M73 Q64 S2
G1 Z.6 F720
; Filament-specific end gcode
T4
M900 K0.05 ; Filament gcode LA 1.5
M900 K30 ; Filament gcode LA 1.0


G1 F10800
G1 X221.180 Y138.500
G1 Z.2 F720
G4 S0
; CP TOOLCHANGE LOAD
G1 E12.0000 F1140
G1 X170.625 E42.0000 F1011
G1 X221.180 E6.0000 F708
M73 P65 R2
M73 Q65 S2
G1 Y139.000
; CP TOOLCHANGE WIPE
M73 P66 R2
M73 Q66 S2
G1 X229.000 E0.3507 F396
G1 X229.750 Y138.500 E0.0404
G1 X171.000 E2.6348 F450
G1 X170.250 Y138.000 E0.0404
M73 P68 R1
M73 Q68 S1
G1 X229.000 E2.6348 F550
G1 Y137.500 E0.0224
M73 P70 R1
M73 Q70 S1
G1 X171.000 E2.6012 F1050
G1 Y137.000 E0.0224
M73 P71 R1
M73 Q71 S1
G1 X229.000 E2.6012 F1100
G1 X229.750 Y136.500 E0.0404
M73 P72 R1
M73 Q72 S1
G1 X171.000 E2.6348 F1150
G1 X170.250 Y136.000 E0.0404
M73 P73 R1
M73 Q73 S1
G1 X229.000 E2.6348 F1200
G1 Y135.500 E0.0224
G1 X171.000 E2.6012
G1 Y135.000 E0.0224
M73 P74 R1
M73 Q74 S1
G1 X229.000 E2.6012
G1 X229.750 Y134.500 E0.0404
M73 P75 R1
M73 Q75 S1
G1 X171.000 E2.6348
G1 X170.250 Y134.000 E0.0404
M73 P76 R1
M73 Q76 S1
G1 X229.000 E2.6348
G1 Y133.500 E0.0224
M73 P77 R1
M73 Q77 S1
G1 X171.000 E2.6012
G1 Y133.000 E0.0224
G1 X229.000 E2.6012
G1 X229.750 Y132.500 E0.0404
M73 P78 R1
M73 Q78 S1
G1 X171.000 E2.6348
G1 X170.250 Y132.000 E0.0404
M73 P79 R1
M73 Q79 S1
G1 X229.000 E2.6348
G1 Y131.500 E0.0224
M73 P80 R1
M73 Q80 S1
G1 X171.000 E2.6012
G1 Y131.000 E0.0224
M73 P81 R1
M73 Q81 S1
G1 X229.000 E2.6012
G1 X229.750 Y130.500 E0.0404
G1 X171.000 E2.6348
G1 X170.250 Y130.000 E0.0404
M73 P82 R1
M73 Q82 S1
G1 X229.000 E2.6348
G1 Y129.500 E0.0224
M73 P83 R1
M73 Q83 S1
G1 X171.000 E2.6012
G1 Y129.000 E0.0224
M73 P84 R0
M73 Q84 S0
G1 X229.000 E2.6012
G1 X229.750 Y128.500 E0.0404
M73 P85 R0
M73 Q85 S0
G1 X171.000 E2.6348
G1 X170.250 Y128.000 E0.0404
M73 P86 R0
G1 X229.000 E2.6348
G1 Y127.500 E0.0224
M73 Q86 S0
G1 X171.000 E2.6012
G1 Y127.000 E0.0224
M73 P87 R0
M73 Q87 S0
G1 X229.000 E2.6012
G1 X229.750 Y126.500 E0.0404
M73 P88 R0
M73 Q88 S0
G1 X171.000 E2.6348
G1 X170.250 Y126.000 E0.0404
M73 P89 R0
M73 Q89 S0
G1 X229.000 E2.6348
G1 Y125.500 E0.0224
M73 P90 R0
G1 X171.000 E2.6012
M220 R
G1 F10800
G4 S0
G92 E0
; CP TOOLCHANGE END
;------------------



; printing object zzz.obj_12 id:2 copy 0
;WIPE_START
M73 Q90 S0
G1 F8640
G1 X171 Y126 E-.11545
G1 X173.965 Y126 E-.68455
;WIPE_END
G1 Z.6 F720
G1 X131.106 Y127.369 F10800
G1 Z.2 F720
M73 P91 R0
G1 E.8 F2100
M204 S800
;TYPE:External perimeter
;WIDTH:0.38292
;HEIGHT:0.2
G1 F1200
G1 X131.106 Y87.949 E1.11445
M204 S1000
; stop printing object zzz.obj_12 id:2 copy 0
;WIPE_START
G1 F8640;_WIPE
M73 Q91 S0
G1 X131.106 Y91.414 E-.8
;WIPE_END
G1 Z.6 F720
G1 Z.4 F720
G1 Z.8 F720
G1 X229.75 Y147.87 F10800
G1 Z.4 F720
G1 E.8 F2100
;HEIGHT:0.2
;TYPE:Wipe tower
;WIDTH:0.5
;--------------------
; CP TOOLCHANGE START
; toolchange #1
M220 B
M220 S100
; CP TOOLCHANGE UNLOAD
;WIDTH:0.65
G1 X229.250 Y147.480
M900 K0
G1 F1339
G1 X223.671 E0.2816
G1 F1451
G1 X217.626 E0.3051
G1 F1642
M73 P92 R0
M73 Q92 S0
G1 X210.785 E0.3453
G1 F1897
G1 X202.881 E0.3990
G1 F2264
G1 X193.449 E0.4761
G1 F2742
G1 X182.025 E0.5767
G1 F3220
G1 X170.750 E0.5691
G1 Y146.700 F7200
G1 F3220
G1 X172.892 E0.1081
G1 F3635
G1 X188.036 E0.7644
G1 F3921
G1 X204.375 E0.8248
G1 F4033
G1 X221.180 E0.8483
;WIDTH:0.5
G1 E-15.0000 F6000
G1 E-24.5000 F1200
G1 E-7.0000 F600
M73 P93 R0
G1 E-3.5000 F360
M104 S205
M73 Q93 S0
G1 Y145.920
G1 X170.750 E20.0000 F454
G1 X221.180 E-20.0000 F303
M73 P95 R0
M73 Q95 S0
G1 E-35.0000 F2000
M73 P97 R0
M73 Q97 S0
G1 Y146.060 F2400
G4 S0
M220 R
M73 P98 R0
M73 Q98 S0
G1 F10800
G4 S0
G92 E0
; CP TOOLCHANGE END
;------------------



G1 E-.8 F2100
G1 Z.8 F720
M107
;TYPE:Custom
; Filament-specific end gcode
G1 Z1.2 F720 ; Move print head up
G1 X0 Y210 F7200 ; park
G1 Z49.2 F720 ; Move print head further up

G1 E-15 F3000


M140 S0 ; turn off heatbed
M107 ; turn off fan

; Unload filament
M702 C

G4 ; wait
M221 S100 ; reset flow
M900 K0 ; reset LA
M907 E538 ; reset extruder motor current
M104 S0 ; turn off temperature
M84 ; disable motors
; max_layer_z = 0.2
M73 P100 R0
M73 Q100 S0
; filament used [mm] = 51.62, 0.00, 0.00, 71.74, 78.52
; filament used [cm3] = 0.12, 0.00, 0.00, 0.17, 0.19
; filament used [g] = 0.15, 0.00, 0.00, 0.21, 0.23
; filament cost = 0.00, 0.00, 0.00, 0.01, 0.01
; total filament used [g] = 0.60
; total filament cost = 0.02
; estimated printing time (normal mode) = 6m 8s
; estimated printing time (silent mode) = 6m 10s
; estimated first layer printing time (normal mode) = 6m 8s
; estimated first layer printing time (silent mode) = 6m 10s

; prusaslicer_config = begin
; autoemit_temperature_commands = 1
; avoid_crossing_curled_overhangs = 0
; avoid_crossing_perimeters = 0
; avoid_crossing_perimeters_max_detour = 0
; bed_custom_model = 
; bed_custom_texture = 
; bed_shape = 0x0,250x0,250x210,0x210
; bed_temperature = 60,60,60,60,60
; before_layer_gcode = ;BEFORE_LAYER_CHANGE\nG92 E0.0\n;[layer_z]\n\n
; between_objects_gcode = 
; bottom_fill_pattern = monotonic
; bottom_solid_layers = 4
; bottom_solid_min_thickness = 0.5
; bridge_acceleration = 1000
; bridge_angle = 0
; bridge_fan_speed = 100,100,100,100,100
; bridge_flow_ratio = 0.95
; bridge_speed = 25
; brim_separation = 0.1
; brim_type = outer_only
; brim_width = 0
; color_change_gcode = M600\nG1 E0.4 F1500 ; prime after color change
; compatible_printers_condition_cummulative = "printer_notes=~/.*PRINTER_VENDOR_PRUSA3D.*/ and printer_notes=~/.*PRINTER_MODEL_MK3.*/ and nozzle_diameter[0]==0.4";"nozzle_diameter[0]!=0.8 and nozzle_diameter[0]!=0.25 and printer_notes=~/.*PRINTER_VENDOR_PRUSA3D.*/ and printer_notes=~/.*PRINTER_MODEL_MK(2.5|3).*/ and single_extruder_multi_material";"nozzle_diameter[0]!=0.8 and nozzle_diameter[0]!=0.25 and printer_notes=~/.*PRINTER_VENDOR_PRUSA3D.*/ and printer_notes=~/.*PRINTER_MODEL_MK(2.5|3).*/ and single_extruder_multi_material";"nozzle_diameter[0]!=0.8 and nozzle_diameter[0]!=0.25 and printer_notes=~/.*PRINTER_VENDOR_PRUSA3D.*/ and printer_notes=~/.*PRINTER_MODEL_MK(2.5|3).*/ and single_extruder_multi_material";"nozzle_diameter[0]!=0.8 and nozzle_diameter[0]!=0.25 and printer_notes=~/.*PRINTER_VENDOR_PRUSA3D.*/ and printer_notes=~/.*PRINTER_MODEL_MK(2.5|3).*/ and single_extruder_multi_material";"nozzle_diameter[0]!=0.8 and nozzle_diameter[0]!=0.25 and printer_notes=~/.*PRINTER_VENDOR_PRUSA3D.*/ and printer_notes=~/.*PRINTER_MODEL_MK(2.5|3).*/ and single_extruder_multi_material"
; complete_objects = 0
; cooling = 1,1,1,1,1
; cooling_tube_length = 20
; cooling_tube_retraction = 40
; default_acceleration = 1000
; default_filament_profile = "Prusament PLA @MMU"
; default_print_profile = 0.15mm QUALITY @MK3
; deretract_speed = 0,0,0,0,0
; disable_fan_first_layers = 1,1,1,1,1
; dont_support_bridges = 0
; draft_shield = disabled
; duplicate_distance = 6
; elefant_foot_compensation = 0.2
; enable_dynamic_fan_speeds = 0,0,0,0,0
; enable_dynamic_overhang_speeds = 1
; end_filament_gcode = "; Filament-specific end gcode";"; Filament-specific end gcode";"; Filament-specific end gcode";"; Filament-specific end gcode";"; Filament-specific end gcode"
; end_gcode = {if max_layer_z < max_print_height}G1 Z{z_offset+min(max_layer_z+1, max_print_height)} F720 ; Move print head up{endif}\nG1 X0 Y210 F7200 ; park\n{if max_layer_z < max_print_height}G1 Z{z_offset+min(max_layer_z+49, max_print_height)} F720 ; Move print head further up{endif}\n{if has_wipe_tower}\nG1 E-15 F3000\n{else}\nG1 E2 F5000\nG1 E2 F5500\nG1 E2 F6000\nG1 E-15 F5800\nG1 E-20 F5500\nG1 E10 F3000\nG1 E-10 F3100\nG1 E10 F3150\nG1 E-10 F3250\nG1 E10 F3300\n{endif}\n\nM140 S0 ; turn off heatbed\nM107 ; turn off fan\n\n; Unload filament\nM702 C\n\nG4 ; wait\nM221 S100 ; reset flow\nM900 K0 ; reset LA\n{if print_settings_id=~/.*(DETAIL @MK3|QUALITY @MK3|SOLUBLE|@0.25 nozzle MK3).*/}M907 E538 ; reset extruder motor current{endif}\nM104 S0 ; turn off temperature\nM84 ; disable motors\n; max_layer_z = [max_layer_z]
; external_perimeter_acceleration = 0
; external_perimeter_extrusion_width = 0.45
